resources/svg/list-ordered.svg

<svg xmlns="http://www.w3.org/2000/svg" viewBox="0 0 15 15" fill="currentColor"><path fill-rule="evenodd" clip-rule="evenodd" d="M7.24358e-08 2H2V5H3V6H7.24358e-08V5H1V3H7.24358e-08V2ZM15 4H5V3H15V4ZM15 8H5V7H15V8ZM7.24358e-08 11.5C7.24358e-08 10.6716 0.671573 10 1.5 10H1.79289C2.45956 10 3 10.5404 3 11.2071C3 11.5273 2.87282 11.8343 2.64645 12.0607L1.70711 13H3V14H0.5C0.297769 14 0.115451 13.8782 0.0380603 13.6913C-0.0393302 13.5045 0.00344768 13.2894 0.146447 13.1464L1.93934 11.3536C1.97818 11.3147 2 11.262 2 11.2071C2 11.0927 1.90728 11 1.79289 11H1.5C1.22386 11 1 11.2239 1 11.5H7.24358e-08ZM15 12H5V11H15V12Z" fill="black"/></svg>

<svg xmlns="http://www.w3.org/2000/svg" viewBox="0 0 15 15" fill="currentColor"><path fill-rule="evenodd" clip-rule="evenodd" d="M0 2h2v3h1v1H0V5h1V3H0V2zm15 2H5V3h10v1zm0 4H5V7h10v1zM0 11.5A1.5 1.5 0 011.5 10h.293a1.207 1.207 0 01.853 2.06l-.939.94H3v1H.5a.5.5 0 01-.354-.854l1.793-1.792A.207.207 0 001.793 11H1.5a.5.5 0 00-.5.5H0zm15 .5H5v-1h10v1z" fill="currentColor"/></svg>
